X: 3
T: AN DRO 3
M: 4/4
L: 1/8
Q:1/4=88
K:C
|:A/2B/2c/2B/2Ae cABe|d/2e/2d/2c/2BA/2B/2 cAB2|A/2B/2c/2B/2Ae cABe|d/2e/
2d/2c/2BA/2B/2 c/2A/2B/2c/2A2:|
|:A/2B/2c/2d/2ed/2e/2 f/2e/2f/2g/2e2|A/2B/2c/2d/2ee a/2g/2f/2e/2d2|A/2B/
2c/2d/2ed/2e/2 f/2e/2f/2g/2e2|A/2B/2c/2d/2e/2f/2e/2d/2 cBA2:|
